!!!SOCIAL_FUNCTION:	game songs
!!!PDT:	1943
!!!OTL: No_61_Slahal_Game_Song_(c).krn
!!!REG: British Columbia
**kern	**kern
*staff2	*staff1
=1-	=1-
=	=
*clefF4	*clefF4
*k[f#c#]	*k[f#c#]
*M2/4	*M2/4
16GG/LL	8BB/L
16GG/	.
16GG/	8BB/J
16GG/JJ	.
16GG/LL	8D\L
16GG/	.
16GG/	16D\Jk
16GG/JJ	16r
=2	=2
16GG/LL	4.E\
16GG/	.
16GG/	.
16GG/JJ	.
4r	.
.	8r
=3	=3
2r	8F#\L
.	16G\L
.	16E\JJ
.	8D\L
.	16D\Jk
.	16r
=4	=4
2r	8D\L
.	8D\J
.	8BB/L
.	16BB/Jk
.	16r
=5	=5
2r	8BB/L
.	8BB/J
.	8BB/L
.	16BB/Jk
.	16r
=6	=6
2r	8BB/L
.	8BB/J
.	8AA/L
.	16AA/Jk
.	16r
=7	=7
2r	8BB/L
.	8BB/J
.	8D\L
.	16D\Jk
.	16r
=8	=8
2r	8D\L
.	8D\J
.	8BB/L
.	16BB/Jk
.	16r
=9	=9
2r	8BB/L
.	8BB/J
.	8BB/L
.	16BB/Jk
.	16r
==:|!	==:|!
*-	*-
